X:17
T:Heath Creek
C:Ron Miller
M:4/4
L:1/8
K:D
"D"EFEF DEFD|FAdf edBA|"G"GABA GBdB|GEDG EGEB,|"A"A,B,CA, B,CEF|AFAB cAB
c|"D"dBAF ABAF|1EAFE D2 BA:|2EAFE D2 C=C||"Bm"B,^A,B,C DEFD|"B"FE^DC B,C
=D^D|"Em"EFGB cBGB|"E"^GcBG cBGB|"F#m"ABcB A^GFG|"C#dim"ABce fagc|"D6"de
fa bafe|1"Dmaj7"dBAF ECA,^A,:|2"D"fece d2||
